X:1
T:Hear the Call
T:William Fiske Sherwin, 1876
T:Hear the Call
T:Public Domain
T:Public Domain
C:William Fiske Sherwin, 1876
Z:Public Domain
%%score ( 1 2 ) ( 3 4 )
L:1/8
M:4/4
K:Bb
V:1 treble 
V:2 treble 
V:3 bass 
V:4 bass 
V:1
 [DF]2 [^C=E]2 [DF]2 [FB]2 | [Fc]2 (B>c) [Fd]2 [DB]2 | [EG]2 [Ee]2 [DF]2 [Fd]2 | %3
w: 1.~Lo! the day of|God is * break- ing;|the gleam- ing from|
w: 2.~Trust in Him who|is your * cap- tain;|no heart in ter-|
w: 3.~On- ward march- ing,|firm and * stea- dy,|not, fear not Sa-|
w: 4.~Con- quering hosts with|ban- ners * wav- ing,|ing on o’er hill|
 [=Ed]2 (cG) (F2 _E2) | [DF]2 [^C=E]2 [DF]2 [FB]2 | [Fc]2 (B>c) [Fd]2 [DB]2 | %6
w: a- far! * Sons *|from slum- ber wak-|ing, Hail * the bright|
w: ror quail; * Je- *|the gath- ’ring le-|gions, In * His name|
w: tan’s frown, * For *|is with you al-|ways, Till * you wear|
w: and plain, * Ne’er *|till swells the an-|them, “Christ * o’er all|
 [EG]2 [Ge]2 [Fd]2 ([FB]>[Gc]) | [Fd]2 [Ec]2 [DB]4 ||"^Refrain" [^Fd]2 [Fd]2 [Fd]3 [FA] | %9
w: morn- ing star. * *|||
w: shall pre- vail. * *|||
w: vic- tor’s crown. * *|||
w: world doth reign!” * *|||
 [GB]2 (GA) [GB][DA] [DG]2 | [=Ec]2 [Ec]2 [Ec]2 ([EG][GB]) | [FA]2 [=EG]2 (F2 _E2) | %12
w: |||
w: |||
w: |||
w: |||
 [DF]2 [^C=E]2 [DF]2 [FB]2 | [Fc]2 [Af]2 (f>d) [FB]2 | [=EB]2 [EB]2 [FB]>[FA] [FB][Fd] | %15
w: |||
w: |||
w: |||
w: |||
 [Ec]2 [FA]2 [DB]4 |] %16
w: |
w: |
w: |
w: |
V:2
 x8 | x2 F2 x4 | x8 | x2 _E2 c4 | x8 | x2 F2 x4 | x8 | x8 || x8 | x2 D2 x4 | x8 | x4 F4 | x8 | %13
w: |See||of earth||and||||||||
w: |Let||sus leads||we||||||||
w: |Faint||the Lord||the||||||||
w: |Sweep-||shall halt||the||||||||
 x4 B2 x2 | x8 | x8 |] %16
w: |||
w: |||
w: |||
w: |||
V:3
 [B,,B,]2 [B,,G,]2 [B,,F,]2 [D,F,]2 | [F,A,]2 (G,>A,) B,2 [B,,B,]2 | [E,B,]2 [G,B,]2 B,2 [B,,B,]2 | %3
w: ~ ~ ~ ~|~ ~ * ~ ~|~ ~ ~ ~|
 [C,G,]2 (G,B,) [F,A,]4 | [B,,B,]2 [B,,G,]2 [B,,F,]2 [D,F,]2 | [F,A,]2 (G,>A,) B,2 B,2 | %6
w: ~ ~ * ~|~ ~ ~ ~|~ ~ * ~ ~|
 [E,B,]2 [E,B,]2 [B,,B,]2 (D,>E,) | [F,B,]2 [F,A,]2 B,4 || [D,A,]2 [D,A,]2 [D,A,]3 [D,D] | %9
w: Hear the call! O *|your ar- mor|Grasp the Spir- it’s|
 [G,D]2 (B,C) [G,D][G,C] [G,B,]2 | [C,G,]2 [C,G,]2 [C,G,]2 [=E,C]2 | [F,C]2 [C,B,]2 [F,A,]4 | %12
w: might- y * sword: Take the|met of sal- va-|tion, Press- ing|
 [B,,B,]2 [B,,G,]2 [B,,F,]2 [D,F,]2 | [F,A,]2 [F,C]2 [B,D]2 [B,D]2 | %14
w: on to bat- tle|for the Lord! *|
 [G,^C]2 [G,C]2 [F,D]>[F,=C] [F,D][F,B,] | [F,A,]2 [F,,C]2 [B,,B,]4 |] %16
w: ||
V:4
 x8 | x2 F,2 B,2 x2 | x4 B,2 x2 | x2 C,2 x4 | x8 | x2 F,2 B,2 B,2 | x6 B,2 | x4 B,4 || x8 | %9
w: |~ ~|~|~||~ ~ ~|gird|on,||
 x2 G,2 x4 | x8 | x8 | x8 | x8 | x8 | x8 |] %16
w: hel-|||||||

